sites/pr-liz/images/icon.svg

<svg width="120" height="120" viewBox="0 0 120 120" fill="none" xmlns="http://www.w3.org/2000/svg">
<path d="M59.6274 33.1904C74.6371 33.1904 86.8604 45.4137 86.8604 60.272C86.8604 75.2526 74.6356 87.3551 59.5065 87.3551C44.3774 87.3551 32.2735 75.2512 32.2735 60.272C32.2735 53.0816 35.1794 46.2522 40.2617 41.0986C45.4664 36.0657 52.3656 33.1904 59.6274 33.1904V33.1904ZM59.6274 26C40.6271 26 25.2549 41.3388 25.2549 60.1526C25.2549 78.9665 40.6242 94.4247 59.6259 94.4247C78.629 94.4247 93.9998 79.0859 93.9998 60.272C93.9998 51.1643 90.3689 42.5369 83.9545 36.0657C77.5415 29.5959 68.706 26 59.6288 26L59.6274 26Z" fill="url(#paint0_linear_351_365)"/>
<path d="M59.6305 87.4745C58.1776 87.4745 56.8469 87.3551 55.5148 87.1149L59.6305 74.532L14 66.503L77.9072 41.9386L62.8974 87.2343C61.8084 87.4745 60.7195 87.4745 59.6305 87.4745V87.4745ZM66.2866 54.1604L40.6274 63.9874L61.8099 67.7027L66.2866 54.1604Z" fill="url(#paint1_linear_351_365)"/>
<defs>
<linearGradient id="paint0_linear_351_365" x1="51.6057" y1="43.5837" x2="88.1866" y2="120.917" gradientUnits="userSpaceOnUse">
<stop stop-color="#68B037"/>
<stop offset="1" stop-color="#53A229"/>
</linearGradient>
<linearGradient id="paint1_linear_351_365" x1="67.559" y1="98.1997" x2="51.4137" y2="64.7284" gradientUnits="userSpaceOnUse">
<stop stop-color="#AB212F"/>
<stop offset="1" stop-color="#E31523"/>
</linearGradient>
</defs>
</svg>

<svg width="120" height="120" fill="none" xmlns="http://www.w3.org/2000/svg"><path d="M59.627 33.19c15.01 0 27.233 12.224 27.233 27.082 0 14.98-12.224 27.083-27.353 27.083-15.13 0-27.233-12.104-27.233-27.083 0-7.19 2.905-14.02 7.988-19.173 5.204-5.033 12.104-7.909 19.365-7.909Zm0-7.19c-19 0-34.372 15.339-34.372 34.153 0 18.813 15.37 34.272 34.37 34.272C78.63 94.425 94 79.085 94 60.272c0-9.108-3.631-17.735-10.046-24.206C77.542 29.596 68.706 26 59.63 26h-.002Z" fill="url(#a)"/><path d="M59.63 87.475c-1.452 0-2.783-.12-4.115-.36l4.115-12.583L14 66.503l63.907-24.564-15.01 45.295c-1.089.24-2.178.24-3.267.24Zm6.657-33.315-25.66 9.827 21.183 3.716 4.477-13.543Z" fill="url(#b)"/><defs><linearGradient id="a" x1="51.606" y1="43.584" x2="88.187" y2="120.917" gradientUnits="userSpaceOnUse"><stop stop-color="#68B037"/><stop offset="1" stop-color="#53A229"/></linearGradient><linearGradient id="b" x1="67.559" y1="98.2" x2="51.414" y2="64.728" gradientUnits="userSpaceOnUse"><stop stop-color="#AB212F"/><stop offset="1" stop-color="#E31523"/></linearGradient></defs></svg>
